X:1
T:A Man's a Man For All That
M:4/4
L:1/8
K:Bb
 z4 z2 zF/2-G/2| B3/2 c/2 BF GB ce| d3/2 c/2 BF G2 Gd/2-c/2| B3/2 c/2 BF GB ce|\
 d3/2 c/2 BG F2 Fe| d3/2- e/2 fd e3/2 d/2- ce| d3/2 e/2 fB G2 Ge| d3/2 e/2 fd/2-f/2 gc c3/2 d/2|\
 B3/2 c/2c/2-B/2A/2-G/2 F2 F z|
